public/images/type-icons/electric.svg

<svg fill="none" height="512" viewBox="0 0 512 512" width="512" xmlns="http://www.w3.org/2000/svg"><path clip-rule="evenodd" d="m152.56.583659c-.099-.285699.114-.583659.416-.583659h179.829c.193 0 .364.125587.421.309782l82.598 266.861218c.087.283-.124.57-.421.57h-119.719c-.146 0-.251.139-.211.28l68.662 241.705c.134.469-.481.775-.774.385l-266.8315-354.844c-.218-.29-.0111-.704.3515-.704h108.655c.151 0 .257-.149.207-.292z" fill="#fff" fill-rule="evenodd"/></svg>

<svg width="512" height="512" viewBox="0 0 512 512" fill="none" xmlns="http://www.w3.org/2000/svg">
<path fill-rule="evenodd" clip-rule="evenodd" d="M152.56 0.583659C152.461 0.29796 152.674 0 152.976 0H332.805C332.998 0 333.169 0.125587 333.226 0.309782L415.824 267.171C415.911 267.454 415.7 267.741 415.403 267.741H295.684C295.538 267.741 295.433 267.88 295.473 268.021L364.135 509.726C364.269 510.195 363.654 510.501 363.361 510.111L96.5295 155.267C96.3115 154.977 96.5184 154.563 96.881 154.563H205.536C205.687 154.563 205.793 154.414 205.743 154.271L152.56 0.583659Z" fill="white"/>
</svg>
